X: 3
T:Father O'Flynn
T:Top of the Cork Road, The
S:Gerry Strong, Ir-Trad, 5/97
Z:Another very widely known tune.
M:6/8
L:1/8
R:jig
K:D
A|dAF DFA|dfe dcB|dcd efg|fdf ecA|dAF DFA|dfe dcB|dcd efg|fdd d2:|
g|fdf fga|ecA ABc|dcd Bed|cAA A2=c|BGB Bcd|AFD DFA|dcd efg|fdd d2:|
